www/assets/icons/looks_5.svg

<svg xmlns="http://www.w3.org/2000/svg" width="24" height="24" viewBox="0 0 24 24" fill='currentColor'><path d="M19 3H5c-1.1 0-2 .9-2 2v14c0 1.1.9 2 2 2h14c1.1 0 2-.9 2-2V5c0-1.1-.9-2-2-2m-4 6h-4v2h2a2 2 0 0 1 2 2v2a2 2 0 0 1-2 2H9v-2h4v-2H9V7h6z"/></svg>

<svg width="24" height="24" viewBox="0 0 24 24" xmlns="http://www.w3.org/2000/svg" fill='currentColor'><path d="M19 3H5C3.9 3 3 3.9 3 5V19C3 20.1 3.9 21 5 21H19C20.1 21 21 20.1 21 19V5C21 3.9 20.1 3 19 3ZM15 9H11V11H13C14.1 11 15 11.89 15 13V15C15 16.11 14.1 17 13 17H9V15H13V13H9V7H15V9Z"/></svg>
